actions/symbolic/insert-emoticon-symbolic.svg

<?xml version="1.0" encoding="UTF-8" standalone="no"?>
<svg
   xmlns:dc="http://purl.org/dc/elements/1.1/"
   xmlns:cc="http://creativecommons.org/ns#"
   xmlns:rdf="http://www.w3.org/1999/02/22-rdf-syntax-ns#"
   xmlns:svg="http://www.w3.org/2000/svg"
   xmlns="http://www.w3.org/2000/svg"
   xmlns:sodipodi="http://sodipodi.sourceforge.net/DTD/sodipodi-0.dtd"
   xmlns:inkscape="http://www.inkscape.org/namespaces/inkscape"
   viewBox="0 0 16 16"
   id="svg3301"
   version="1.1"
   inkscape:version="0.91 r13725"
   sodipodi:docname="insert-emoticon-symbolic.svg">
  <metadata
     id="metadata3309">
    <rdf:RDF>
      <cc:Work
         rdf:about="">
        <dc:format>image/svg+xml</dc:format>
        <dc:type
           rdf:resource="http://purl.org/dc/dcmitype/StillImage" />
      </cc:Work>
    </rdf:RDF>
  </metadata>
  <sodipodi:namedview
     pagecolor="#ffffff"
     bordercolor="#666666"
     borderopacity="1"
     objecttolerance="10"
     gridtolerance="10"
     guidetolerance="10"
     inkscape:pageopacity="0"
     inkscape:pageshadow="2"
     inkscape:window-width="640"
     inkscape:window-height="480"
     id="namedview3307"
     showgrid="false"
     inkscape:zoom="29.123961"
     inkscape:cx="9.0976139"
     inkscape:cy="4.5982925"
     inkscape:current-layer="svg3301" />
  <defs
     id="defs3051">
    <style
       type="text/css"
       id="current-color-scheme">
      .ColorScheme-Text {
        color:#bebebe;
      }
      </style>
  </defs>
  <path
     style="color:#bebebe;fill:currentColor;fill-opacity:1;stroke:none"
     d="M 8 2 C 4.686286 2 2 4.6862857 2 8 C 2 11.313714 4.686286 14 8 14 C 11.313714 14 14 11.313714 14 8 C 14 4.6862857 11.313714 2 8 2 z M 5.8125 5.4375 C 6.3727 5.4375 6.9328875 5.9485031 7.3046875 6.9707031 C 7.3414875 7.0735031 7.1504875 7.2592031 7.0546875 7.1582031 C 6.6942875 6.7780031 6.2623 6.6269531 5.8125 6.6269531 C 5.3625 6.6269531 4.9326656 6.7780031 4.5722656 7.1582031 C 4.4762656 7.2592031 4.2835125 7.0737031 4.3203125 6.9707031 C 4.6919125 5.9485031 5.2523 5.4375 5.8125 5.4375 z M 10.1875 5.4375 C 10.7475 5.4375 11.307688 5.9483031 11.679688 6.9707031 C 11.716487 7.0735031 11.523534 7.2592031 11.427734 7.1582031 C 11.067134 6.7780031 10.6375 6.6269531 10.1875 6.6269531 C 9.7375 6.6269531 9.3059125 6.7780031 8.9453125 7.1582031 C 8.8495125 7.2592031 8.6585125 7.0737031 8.6953125 6.9707031 C 9.0671125 5.9485031 9.6273 5.4375 10.1875 5.4375 z M 5.3457031 9.6171875 C 5.3873344 9.6108687 5.4339219 9.6224 5.4824219 9.65625 C 7.0948219 10.78085 8.8955781 10.78745 10.517578 9.65625 C 10.711578 9.52105 10.885506 9.7541031 10.753906 9.9707031 C 10.262306 10.779903 9.2708 11.501953 8 11.501953 C 6.7292 11.501953 5.7376938 10.780103 5.2460938 9.9707031 C 5.1473937 9.8082531 5.2208094 9.6361438 5.3457031 9.6171875 z "
     id="path3305" />
  <g
     id="g3429"
     transform="matrix(0.2,0,0,0.2,1.6,1.6)" />
</svg>

<svg xmlns="http://www.w3.org/2000/svg" viewBox="0 0 16 16">
  <path fill="#bebebe" d="M8 2a6 6 0 1 0 0 12A6 6 0 0 0 8 2zM5.812 5.438c.56 0 1.12.51 1.493 1.533.036.103-.155.288-.25.187a1.652 1.652 0 0 0-1.242-.531c-.45 0-.88.151-1.24.531-.097.101-.29-.084-.253-.187.372-1.022.932-1.534 1.492-1.534zm4.375 0c.56 0 1.12.51 1.493 1.533.036.103-.156.288-.252.187-.36-.38-.79-.531-1.24-.531s-.882.151-1.243.531c-.095.101-.286-.084-.25-.187.372-1.022.932-1.534 1.492-1.534zm-4.841 4.18a.189.189 0 0 1 .136.038c1.613 1.125 3.414 1.131 5.036 0 .194-.135.368.098.236.315A3.239 3.239 0 0 1 8 11.502a3.238 3.238 0 0 1-2.754-1.531c-.099-.163-.025-.335.1-.354z"/>
</svg>
